svgs/duotone/clone.svg

<svg xmlns="http://www.w3.org/2000/svg" viewBox="0 0 512 512"><!--! Font Awesome Pro 6.0.0-alpha3 by @fontawesome - https://fontawesome.com License - https://fontawesome.com/license (Commercial License) --><defs><style>.fa-secondary{opacity:.4}</style></defs><path class="fa-primary" d="M512 64v224c0 35.35-28.65 64-64 64H224c-35.35 0-64-28.65-64-64V64c0-35.35 28.65-64 64-64h224C483.3 0 512 28.65 512 64z"/><path class="fa-secondary" d="M352 384v64c0 35.35-28.65 64-64 64H64c-35.35 0-64-28.65-64-64V224c0-35.35 28.65-64 64-64h64v144C128 348.2 163.8 384 208 384H352z"/></svg>

<svg xmlns="http://www.w3.org/2000/svg" viewBox="0 0 512 512"><!--! Font Awesome Pro 6.0.0 by @fontawesome - https://fontawesome.com License - https://fontawesome.com/license (Commercial License) Copyright 2022 Fonticons, Inc. --><defs><style>.fa-secondary{opacity:.4}</style></defs><path class="fa-primary" d="M160 64C160 28.65 188.7 0 224 0H448C483.3 0 512 28.65 512 64V288C512 323.3 483.3 352 448 352H224C188.7 352 160 323.3 160 288V64z"/><path class="fa-secondary" d="M0 224C0 188.7 28.65 160 64 160H128V288C128 341 170.1 384 224 384H352V448C352 483.3 323.3 512 288 512H64C28.65 512 0 483.3 0 448V224z"/></svg>
